X:2385
T:the High road to Linton
M:4/4
O:Scotland
R:Reel
Z:Richard Robinson 
%%TUNEURL: http://www.leeds.ac.uk/music/Info/RRTuneBk/gettune/000007f9.html
%%ID:000007f9
K:A mixolydian
cefe a2ae|f2fe a2ae|cefe a2ae|faec B2A2::
ceeg fddf|ecce fBB2|ceeg fddf|ecac B2A2::
a2a2 efa2|efae faef|a2a2 efae|faec B2A2::
c2ec defd|c2ec BcdB|c2ec defg|afec B2A2:|
